; generated by PrusaSlicer 2.8.0+win64 on 2024-08-22 at 19:18:28 UTC


;
;
; 

; external perimeters extrusion width = 0.60mm
; perimeters extrusion width = 0.50mm
; infill extrusion width = 0.50mm
; solid infill extrusion width = 0.50mm
; top infill extrusion width = 0.45mm
; first layer extrusion width = 0.42mm

M73 P0 R131
M73 Q0 S133
M201 X1000 Y1000 Z200 E5000 ; sets maximum accelerations, mm/sec^2
M203 X200 Y200 Z12 E120 ; sets maximum feedrates, mm / sec
M204 S1250 T1250 ; sets acceleration (S) and retract acceleration (R), mm/sec^2
M205 X8.00 Y8.00 Z0.40 E4.50 ; sets the jerk limits, mm/sec
M205 S0 T0 ; sets the minimum extruding and travel feed rate, mm/sec

; printing object Case_V6_Temp_LCD_Case v1.stl id:0 copy 0
; stop printing object Case_V6_Temp_LCD_Case v1.stl id:0 copy 0

;TYPE:Custom
M862.3 P "MK3S" ; printer model check
M862.1 P0.4 ; nozzle diameter check
M115 U3.14.0 ; tell printer latest fw version
G90 ; use absolute coordinates
M83 ; extruder relative mode
M104 S215 ; set extruder temp
M140 S60 ; set bed temp
M190 S60 ; wait for bed temp
M109 S215 ; wait for extruder temp
G28 W ; home all without mesh bed level
G80 X100.049 Y69.9922 W49.902 H70.0154 ; mesh bed levelling

G1 Z0.2 F720
G1 Y-3 F1000 ; go outside print area
G92 E0
G1 X60 E9 F1000 ; intro line
G1 X100 E12.5 F1000 ; intro line

G92 E0
M221 S95

; Don't change E values below. Excessive value can damage the printer.

M907 E538 ; set extruder motor current
G21 ; set units to millimeters
G90 ; use absolute coordinates
M83 ; use relative distances for extrusion

M900 K0.05 ; Filament gcode LA 1.5
M900 K30 ; Filament gcode LA 1.0




M107
;LAYER_CHANGE
;Z:0.2
;HEIGHT:0.2
G1 E-.8 F2100
G1 Z.6 F720
G1 X101.092 Y72.537 F10800
G1 Z.2 F720
G1 E.8 F2100
M204 S800
;TYPE:Skirt/Brim
;WIDTH:0.42
G1 F1200
G1 X101.972 Y71.512 E.04236
G1 X103.089 Y70.749 E.04241
G1 X104.364 Y70.302 E.04236
G1 X105.426 Y70.181 E.03351
G1 X143.337 Y70.181 E1.18867
G1 X144.574 Y70.181 E.03879
G1 X145.636 Y70.302 E.03351
G1 X146.188 Y70.45 E.01792
G1 X147.406 Y71.035 E.04237
G1 X148.432 Y71.916 E.0424
G1 X149.189 Y73.023 E.04205
G1 X149.492 Y73.751 E.02472
G1 X149.743 Y75.078 E.04234
G1 X149.762 Y134.631 E1.86724
G1 X149.642 Y135.687 E.03332
M73 P0 R130
G1 X149.496 Y136.235 E.01778
G1 X148.908 Y137.463 E.04269
G1 X148.238 Y138.303 E.03369
G1 X147.406 Y138.965 E.03334
G1 X146.911 Y139.251 E.01792
G1 X145.636 Y139.698 E.04236
G1 X144.574 Y139.819 E.03351
G1 X105.426 Y139.819 E1.22746
G1 X104.364 Y139.698 E.03351
G1 X103.812 Y139.55 E.01792
G1 X102.594 Y138.965 E.04237
G1 X101.568 Y138.084 E.0424
G1 X100.806 Y136.968 E.04237
G1 X100.358 Y135.693 E.04237
G1 X100.238 Y134.631 E.03351
G1 X100.238 Y75.369 E1.85812
G1 X100.358 Y74.307 E.03351
G1 X100.506 Y73.755 E.01792
G1 X101.066 Y72.591 E.0405
M204 S1000
;WIPE_START
G1 F8640
G1 X101.092 Y72.537 E-.01384
G1 X101.972 Y71.512 E-.31193
G1 X103.089 Y70.749 E-.31235
G1 X103.751 Y70.517 E-.16188
;WIPE_END
G1 Z.6 F720
; printing object Case_V6_Temp_LCD_Case v1.stl id:0 copy 0
G1 X143.552 Y132.649 F10800
G1 Z.2 F720
G1 E.8 F2100
M204 S800
;TYPE:Perimeter
;WIDTH:0.419999
G1 F1200
G1 X143.482 Y132.674 E.00233
G1 X142.662 Y132.782 E.02593
G1 X120.559 Y132.787 E.69302
G1 X119.666 Y132.674 E.02822
G1 X118.746 Y132.314 E.03098
G1 X117.95 Y131.728 E.03099
G1 X117.334 Y130.956 E.03097
G1 X116.938 Y130.051 E.03097
G1 X116.792 Y129.088 E.03054
G1 X116.787 Y80.986 E1.5082
G1 X116.9 Y80.092 E.02825
G1 X117.26 Y79.172 E.03098
G1 X117.846 Y78.376 E.03099
G1 X118.618 Y77.76 E.03097
G1 X119.523 Y77.364 E.03097
G1 X120.559 Y77.213 E.03283
G1 X142.566 Y77.213 E.69001
G1 X143.48 Y77.325 E.02887
G1 X144.402 Y77.686 E.03105
G1 X145.198 Y78.272 E.03099
G1 X145.814 Y79.044 E.03097
;WIDTH:0.456023
G1 X146.227 Y79.942 E.03395
;WIDTH:0.50186
G1 X146.289 Y80.087 E.00602
G1 X146.329 Y80.498 E.01576
;WIDTH:0.474762
G1 X146.37 Y80.91 E.01487
;WIDTH:0.447664
G1 X146.373 Y80.986 E.00256
;WIDTH:0.444319
G1 X146.373 Y129.015 E1.60304
;WIDTH:0.473088
G1 X146.331 Y129.464 E.01613
M73 Q0 S132
;WIDTH:0.501857
G1 X146.289 Y129.913 E.01721
G1 X146.089 Y130.371 E.01907
;WIDTH:0.460928
G1 X145.888 Y130.828 E.01735
;WIDTH:0.419999
G1 X145.302 Y131.624 E.03099
G1 X144.53 Y132.24 E.03097
G1 X143.908 Y132.519 E.02137
G1 X143.608 Y132.628 E.01001
M204 S1000
G1 X143.608 Y132.628 F10800
G1 X143.456 Y132.291
M204 S800
;TYPE:External perimeter
G1 F1200
G1 X143.433 Y132.3 E.00077
G1 X142.613 Y132.408 E.02593
G1 X120.559 Y132.41 E.69149
G1 X119.715 Y132.3 E.02669
G1 X118.89 Y131.966 E.02791
G1 X118.18 Y131.429 E.02791
G1 X117.633 Y130.726 E.02793
G1 X117.286 Y129.906 E.02792
G1 X117.166 Y129.039 E.02744
G1 X117.164 Y80.986 E1.50667
G1 X117.274 Y80.141 E.02672
G1 X117.608 Y79.316 E.02791
G1 X118.145 Y78.606 E.02791
G1 X118.848 Y78.059 E.02793
G1 X119.668 Y77.712 E.02792
G1 X120.559 Y77.59 E.0282
G1 X142.566 Y77.59 E.69001
G1 X143.432 Y77.699 E.02737
G1 X144.258 Y78.034 E.02795
G1 X144.968 Y78.571 E.02791
G1 X145.515 Y79.274 E.02793
G1 X145.862 Y80.094 E.02792
G1 X145.984 Y80.986 E.02823
G1 X145.984 Y129.015 E1.50591
G1 X145.874 Y129.859 E.02669
G1 X145.54 Y130.684 E.02791
G1 X145.003 Y131.394 E.02791
G1 X144.301 Y131.941 E.0279
G1 X143.511 Y132.268 E.02681
M204 S1000
;WIPE_START
G1 F8640
G1 X143.456 Y132.291 E-.01377
G1 X143.433 Y132.3 E-.0057
G1 X142.613 Y132.408 E-.19098
G1 X140.06 Y132.408 E-.58955
;WIPE_END
G1 Z.6 F720
G1 X104.855 Y73.238 F10800
G1 Z.2 F720
G1 E.8 F2100
M204 S800
;TYPE:Perimeter
G1 F1200
G1 X105.478 Y73.156 E.0197
G1 X144.522 Y73.156 E1.2242
G1 X145.145 Y73.238 E.0197
G1 X145.677 Y73.459 E.01806
G1 X146.134 Y73.809 E.01805
G1 X146.484 Y74.266 E.01805
G1 X146.705 Y74.798 E.01806
G1 X146.787 Y75.557 E.02394
G1 X146.787 Y78.993 E.10773
;WIDTH:0.46093
G1 X146.766 Y79.525 E.01851
;WIDTH:0.50186
G1 X146.746 Y80.057 E.02032
G1 X146.76 Y80.521 E.01771
;WIDTH:0.47309
G1 X146.775 Y80.986 E.01664
;WIDTH:0.444319
G1 X146.775 Y129.015 E1.60304
;WIDTH:0.447662
G1 X146.773 Y129.117 E.00343
;WIDTH:0.464801
G1 X146.764 Y130.165 E.03676
G1 X146.787 Y131.007 E.02955
;WIDTH:0.419999
G1 X146.787 Y134.579 E.112
G1 X146.705 Y135.202 E.0197
G1 X146.484 Y135.734 E.01806
G1 X146.134 Y136.191 E.01805
G1 X145.677 Y136.541 E.01805
G1 X145.145 Y136.762 E.01806
G1 X144.522 Y136.844 E.0197
G1 X105.478 Y136.843 E1.2242
G1 X104.855 Y136.762 E.0197
G1 X104.323 Y136.541 E.01806
G1 X103.866 Y136.191 E.01805
G1 X103.515 Y135.734 E.01807
G1 X103.295 Y135.202 E.01805
G1 X103.213 Y134.579 E.0197
G1 X103.213 Y75.421 E1.85485
G1 X103.295 Y74.798 E.0197
G1 X103.515 Y74.266 E.01805
G1 X103.866 Y73.809 E.01807
G1 X104.323 Y73.459 E.01805
G1 X104.8 Y73.261 E.01619
M204 S1000
G1 X104.8 Y73.261 F10800
G1 X104.757 Y72.871
M204 S800
;TYPE:External perimeter
G1 F1200
G1 X105.453 Y72.779 E.02201
G1 X144.547 Y72.779 E1.22576
G1 X145.243 Y72.871 E.02201
G1 X145.867 Y73.129 E.02117
G1 X146.403 Y73.54 E.02118
G1 X146.814 Y74.076 E.02118
G1 X147.072 Y74.7 E.02117
G1 X147.164 Y75.557 E.02702
G1 X147.164 Y134.604 E1.85137
G1 X147.072 Y135.3 E.02201
G1 X146.814 Y135.924 E.02117
G1 X146.403 Y136.459 E.02115
G1 X145.867 Y136.871 E.0212
G1 X145.243 Y137.129 E.02117
G1 X144.547 Y137.221 E.02201
G1 X105.453 Y137.221 E1.22576
G1 X104.757 Y137.129 E.02201
G1 X104.133 Y136.871 E.02117
G1 X103.597 Y136.459 E.0212
G1 X103.186 Y135.924 E.02115
G1 X102.928 Y135.3 E.02117
G1 X102.836 Y134.604 E.02201
G1 X102.836 Y75.396 E1.85642
G1 X102.928 Y74.7 E.02201
G1 X103.186 Y74.076 E.02117
G1 X103.597 Y73.54 E.02118
G1 X104.133 Y73.129 E.02118
G1 X104.701 Y72.894 E.01927
M204 S1000
;WIPE_START
G1 F8640
G1 X104.757 Y72.871 E-.01398
G1 X105.453 Y72.779 E-.16211
G1 X108.155 Y72.779 E-.62391
;WIPE_END
G1 Z.6 F720
G1 X146.599 Y75.291 F10800
G1 Z.2 F720
G1 E.8 F2100
M204 S800
;TYPE:Solid infill
;WIDTH:0.420836
G1 F1200
G1 X144.849 Y73.542 E.07775
G1 X144.5 Y73.496 E.01106
G1 X144.269 Y73.496 E.00726
G1 X146.447 Y75.674 E.09679
G1 X146.447 Y76.209 E.01681
G1 X143.734 Y73.496 E.12057
G1 X143.2 Y73.496 E.01678
G1 X146.447 Y76.743 E.1443
G1 X146.447 Y77.278 E.01681
G1 X142.666 Y73.496 E.16805
G1 X142.131 Y73.496 E.01681
G1 X146.447 Y77.812 E.1918
G1 X146.447 Y78.347 E.01681
G1 X141.597 Y73.496 E.21556
G1 X141.062 Y73.496 E.01681
G1 X146.447 Y78.881 E.23931
G1 X146.43 Y79.398 E.01625
G1 X146.317 Y79.285 E.00502
G1 X146.09 Y78.846 E.01553
G1 X145.566 Y78.162 E.02708
G1 X145.412 Y78.009 E.00682
G1 X144.729 Y77.484 E.02707
G1 X144.541 Y77.376 E.00681
G1 X144.313 Y77.281 E.00776
G1 X140.528 Y73.496 E.16821
G1 X139.993 Y73.496 E.01681
G1 X143.48 Y76.983 E.15496
G1 X142.868 Y76.904 E.01939
G1 X139.459 Y73.496 E.15147
G1 X138.924 Y73.496 E.01681
G1 X142.308 Y76.879 E.15036
G1 X141.773 Y76.879 E.01681
G1 X138.39 Y73.496 E.15034
G1 X137.855 Y73.496 E.01681
G1 X141.239 Y76.879 E.15036
G1 X140.704 Y76.879 E.01681
G1 X137.321 Y73.496 E.15034
G1 X136.787 Y73.496 E.01678
G1 X140.169 Y76.879 E.15032
G1 X139.635 Y76.879 E.01678
G1 X136.252 Y73.496 E.15034
G1 X135.718 Y73.496 E.01678
G1 X139.1 Y76.878 E.1503
G1 X138.566 Y76.878 E.01678
G1 X135.183 Y73.496 E.15032
G1 X134.649 Y73.496 E.01678
G1 X138.031 Y76.878 E.1503
G1 X137.496 Y76.878 E.01681
G1 X134.114 Y73.496 E.1503
G1 X133.58 Y73.496 E.01678
G1 X136.962 Y76.878 E.1503
G1 X136.427 Y76.878 E.01681
G1 X133.045 Y73.496 E.1503
G1 X132.511 Y73.496 E.01678
G1 X135.893 Y76.878 E.1503
G1 X135.358 Y76.877 E.01681
G1 X131.976 Y73.496 E.15027
G1 X131.442 Y73.496 E.01678
G1 X134.824 Y76.877 E.15027
G1 X134.289 Y76.877 E.01681
G1 X130.908 Y73.496 E.15025
G1 X130.373 Y73.496 E.01681
G1 X133.754 Y76.877 E.15025
G1 X133.22 Y76.877 E.01678
G1 X129.839 Y73.496 E.15025
G1 X129.304 Y73.496 E.01681
G1 X132.685 Y76.877 E.15025
G1 X132.151 Y76.877 E.01678
G1 X128.77 Y73.496 E.15025
G1 X128.235 Y73.496 E.01681
G1 X131.616 Y76.876 E.15023
G1 X131.081 Y76.876 E.01681
G1 X127.701 Y73.496 E.15021
G1 X127.166 Y73.496 E.01681
G1 X130.547 Y76.876 E.15023
G1 X130.012 Y76.876 E.01681
G1 X126.632 Y73.496 E.15021
G1 X126.097 Y73.496 E.01681
G1 X129.478 Y76.876 E.15023
G1 X128.943 Y76.876 E.01681
G1 X125.563 Y73.496 E.15021
G1 X125.029 Y73.496 E.01678
G1 X128.408 Y76.876 E.15019
G1 X127.874 Y76.875 E.01678
G1 X124.494 Y73.496 E.15019
G1 X123.96 Y73.496 E.01678
G1 X127.339 Y76.875 E.15016
G1 X126.805 Y76.875 E.01678
G1 X123.425 Y73.496 E.15019
G1 X122.891 Y73.496 E.01678
G1 X126.27 Y76.875 E.15016
G1 X125.735 Y76.875 E.01681
G1 X122.356 Y73.496 E.15016
G1 X121.822 Y73.496 E.01678
G1 X125.201 Y76.875 E.15016
G1 X124.666 Y76.875 E.01681
M73 P0 R129
G1 X121.287 Y73.496 E.15016
G1 X120.753 Y73.496 E.01678
G1 X124.132 Y76.875 E.15016
G1 X123.597 Y76.874 E.01681
G1 X120.218 Y73.496 E.15014
G1 X119.684 Y73.496 E.01678
G1 X123.062 Y76.874 E.15012
G1 X122.528 Y76.874 E.01678
G1 X119.15 Y73.496 E.15012
G1 X118.615 Y73.496 E.01681
G1 X121.993 Y76.874 E.15012
G1 X121.459 Y76.874 E.01678
G1 X118.081 Y73.496 E.15012
G1 X117.546 Y73.496 E.01681
G1 X120.924 Y76.874 E.15012
G1 X120.55 Y76.874 E.01175
G1 X120.407 Y76.891 E.00453
G1 X117.012 Y73.496 E.15087
G1 X116.477 Y73.496 E.01681
G1 X119.932 Y76.951 E.15354
G1 X119.612 Y76.99 E.01013
G1 X119.474 Y77.027 E.00449
G1 X115.943 Y73.496 E.15692
G1 X115.408 Y73.496 E.01681
G1 X119.089 Y77.176 E.16356
G1 X118.711 Y77.333 E.01286
G1 X114.874 Y73.496 E.17052
G1 X114.339 Y73.496 E.01681
G1 X118.368 Y77.524 E.17903
G1 X118.065 Y77.756 E.01199
G1 X113.805 Y73.496 E.18931
G1 X113.271 Y73.496 E.01678
G1 X117.763 Y77.988 E.19962
G1 X117.583 Y78.162 E.00787
G1 X117.504 Y78.264 E.00405
G1 X112.736 Y73.496 E.21189
G1 X112.202 Y73.496 E.01678
G1 X117.272 Y78.567 E.22533
G1 X117.043 Y78.872 E.01199
G1 X111.667 Y73.496 E.23891
G1 X111.133 Y73.496 E.01678
G1 X116.869 Y79.232 E.25491
G1 X116.715 Y79.613 E.01291
G1 X110.598 Y73.496 E.27184
G1 X110.064 Y73.496 E.01678
G1 X116.575 Y80.006 E.28933
G1 X116.513 Y80.479 E.01499
G1 X109.529 Y73.496 E.31035
G1 X108.995 Y73.496 E.01678
M73 P1 R129
G1 X116.451 Y80.952 E.33134
G1 X116.448 Y81.483 E.01669
G1 X108.46 Y73.496 E.35496
M73 Q1 S132
G1 X107.926 Y73.496 E.01678
G1 X116.448 Y82.017 E.3787
G1 X116.448 Y82.552 E.01681
G1 X107.392 Y73.496 E.40245
G1 X106.857 Y73.496 E.01681
G1 X116.448 Y83.086 E.4262
G1 X116.448 Y83.621 E.01681
G1 X106.323 Y73.496 E.44996
G1 X105.788 Y73.496 E.01681
G1 X116.448 Y84.155 E.47371
G1 X116.448 Y84.69 E.01681
G1 X105.282 Y73.524 E.49622
G1 X104.944 Y73.569 E.01071
G1 X104.837 Y73.613 E.00364
G1 X116.448 Y85.224 E.51599
G1 X116.448 Y85.758 E.01678
M73 Q1 S131
G1 X104.466 Y73.777 E.53246
G1 X104.164 Y74.009 E.01197
G1 X116.448 Y86.293 E.5459
G1 X116.448 Y86.827 E.01678
G1 X103.919 Y74.298 E.55679
G1 X103.812 Y74.437 E.00551
G1 X103.727 Y74.642 E.00697
G1 X116.448 Y87.362 E.5653
G1 X116.448 Y87.896 E.01678
G1 X103.604 Y75.053 E.57077
G1 X103.553 Y75.536 E.01526
G1 X116.448 Y88.431 E.57305
G1 X116.448 Y88.965 E.01678
G1 X103.553 Y76.07 E.57305
G1 X103.553 Y76.605 E.01681
G1 X116.448 Y89.5 E.57305
G1 X116.448 Y90.034 E.01678
G1 X103.553 Y77.139 E.57305
G1 X103.553 Y77.673 E.01678
G1 X116.448 Y90.569 E.57308
G1 X116.448 Y91.103 E.01678
G1 X103.553 Y78.208 E.57305
G1 X103.553 Y78.742 E.01678
G1 X116.448 Y91.637 E.57305
G1 X116.448 Y92.172 E.01681
G1 X103.553 Y79.277 E.57305
G1 X103.553 Y79.811 E.01678
G1 X116.448 Y92.706 E.57305
G1 X116.448 Y93.241 E.01681
G1 X103.553 Y80.346 E.57305
G1 X103.553 Y80.88 E.01678
G1 X116.448 Y93.775 E.57305
G1 X116.448 Y94.31 E.01681
G1 X103.553 Y81.415 E.57305
G1 X103.553 Y81.949 E.01678
G1 X116.448 Y94.844 E.57305
G1 X116.448 Y95.379 E.01681
G1 X103.553 Y82.484 E.57305
G1 X103.553 Y83.018 E.01678
G1 X116.448 Y95.913 E.57305
G1 X116.448 Y96.448 E.01681
G1 X103.553 Y83.552 E.57308
G1 X103.553 Y84.087 E.01681
G1 X116.448 Y96.982 E.57305
G1 X116.448 Y97.516 E.01678
G1 X103.553 Y84.621 E.57305
G1 X103.553 Y85.156 E.01681
G1 X116.448 Y98.051 E.57305
G1 X116.448 Y98.585 E.01678
G1 X103.553 Y85.69 E.57305
G1 X103.553 Y86.225 E.01681
G1 X116.448 Y99.12 E.57305
G1 X116.448 Y99.654 E.01678
G1 X103.553 Y86.759 E.57305
G1 X103.553 Y87.294 E.01681
G1 X116.448 Y100.189 E.57305
G1 X116.448 Y100.723 E.01678
G1 X103.553 Y87.828 E.57305
G1 X103.553 Y88.363 E.01681
G1 X116.448 Y101.258 E.57305
G1 X116.448 Y101.792 E.01678
G1 X103.553 Y88.897 E.57305
G1 X103.553 Y89.431 E.01678
G1 X116.448 Y102.327 E.57308
G1 X116.448 Y102.861 E.01678
G1 X103.553 Y89.966 E.57305
G1 X103.553 Y90.5 E.01678
G1 X116.448 Y103.395 E.57305
G1 X116.448 Y103.93 E.01681
G1 X103.553 Y91.035 E.57305
G1 X103.553 Y91.569 E.01678
G1 X116.448 Y104.464 E.57305
G1 X116.448 Y104.999 E.01681
G1 X103.553 Y92.104 E.57305
G1 X103.553 Y92.638 E.01678
G1 X116.448 Y105.533 E.57305
G1 X116.448 Y106.068 E.01681
G1 X103.553 Y93.173 E.57305
G1 X103.553 Y93.707 E.01678
G1 X116.448 Y106.602 E.57305
G1 X116.448 Y107.137 E.01681
G1 X103.553 Y94.242 E.57305
G1 X103.553 Y94.776 E.01678
G1 X116.448 Y107.671 E.57305
G1 X116.448 Y108.206 E.01681
G1 X103.553 Y95.31 E.57308
G1 X103.553 Y95.845 E.01681
G1 X116.448 Y108.74 E.57305
G1 X116.448 Y109.274 E.01678
G1 X103.553 Y96.379 E.57305
G1 X103.553 Y96.914 E.01681
G1 X116.448 Y109.809 E.57305
G1 X116.448 Y110.343 E.01678
G1 X103.553 Y97.448 E.57305
G1 X103.553 Y97.983 E.01681
G1 X116.448 Y110.878 E.57305
G1 X116.448 Y111.412 E.01678
G1 X103.553 Y98.517 E.57305
M73 P1 R128
G1 X103.553 Y99.052 E.01681
G1 X116.448 Y111.947 E.57305
G1 X116.448 Y112.481 E.01678
G1 X103.553 Y99.586 E.57305
G1 X103.553 Y100.121 E.01681
G1 X116.448 Y113.016 E.57305
G1 X116.448 Y113.55 E.01678
G1 X103.553 Y100.655 E.57305
G1 X103.553 Y101.189 E.01678
G1 X116.448 Y114.085 E.57308
G1 X116.448 Y114.619 E.01678
G1 X103.553 Y101.724 E.57305
G1 X103.553 Y102.258 E.01678
G1 X116.448 Y115.153 E.57305
G1 X116.448 Y115.688 E.01681
G1 X103.553 Y102.793 E.57305
G1 X103.553 Y103.327 E.01678
G1 X116.448 Y116.222 E.57305
G1 X116.448 Y116.757 E.01681
G1 X103.553 Y103.862 E.57305
G1 X103.553 Y104.396 E.01678
G1 X116.448 Y117.291 E.57305
G1 X116.448 Y117.826 E.01681
G1 X103.553 Y104.931 E.57305
G1 X103.553 Y105.465 E.01678
G1 X116.448 Y118.36 E.57305
G1 X116.448 Y118.895 E.01681
G1 X103.553 Y106 E.57305
G1 X103.553 Y106.534 E.01678
M73 Q1 S130
G1 X116.448 Y119.429 E.57305
